src/app/print/link-list/images/ios.svg

<?xml version="1.0" standalone="no"?>
<!DOCTYPE svg PUBLIC "-//W3C//DTD SVG 1.0//EN" "http://www.w3.org/TR/2001/REC-SVG-20010904/DTD/svg10.dtd">
<svg xmlns="http://www.w3.org/2000/svg" xmlns:xlink="http://www.w3.org/1999/xlink" id="body_1" width="51" height="38">

<defs>
    <linearGradient transform="matrix(1 0 -0 -1 0 798.7717)"  id="1" x1="400.05" y1="798.7717" x2="400.05" y2="-1.2283">
        <stop stop-color="#18BFFB" offset="0%"/>
        <stop stop-color="#2072F3" offset="100%"/>
    </linearGradient>
</defs>

<g transform="matrix(0.0475 0 0 0.0475 6.5 -0)">
    <path d="M638.4 0L161.6 0C 72.3 0 0 72.3 0 161.6L0 161.6L0 638.5C 0 727.7 72.3 800 161.6 800L161.6 800L638.5 800C 727.7 800 800.1 727.7 800.1 638.4L800.1 638.4L800.1 161.6C 800 72.3 727.7 0 638.4 0z" stroke="none" fill="url(#1)" />
    <path d="M396.6 183.8L412.80002 155.8C 422.80002 138.3 445.1 132.40001 462.6 142.40001C 480.1 152.40001 486 174.70001 476 192.20001L476 192.20001L319.9 462.4L432.8 462.4C 469.4 462.4 489.9 505.4 474 535.2L474 535.2L143 535.2C 122.8 535.2 106.6 519 106.6 498.80002C 106.6 478.6 122.8 462.40002 143 462.40002L143 462.40002L235.8 462.40002L354.6 256.50003L317.5 192.10004C 307.5 174.60004 313.4 152.50003 330.9 142.30003C 348.4 132.30003 370.5 138.20003 380.69998 155.70003L380.69998 155.70003L396.6 183.8zM256.2 572.7L221.20001 633.4C 211.20001 650.9 188.90001 656.80005 171.40001 646.80005C 153.90001 636.80005 148 614.5 158 597L158 597L184 552C 213.4 542.9 237.3 549.9 256.2 572.7zM557.6 462.6L652.3 462.6C 672.5 462.6 688.7 478.80002 688.7 499C 688.7 519.2 672.5 535.4 652.3 535.4L652.3 535.4L599.7 535.4L635.2 597C 645.2 614.5 639.3 636.6 621.8 646.8C 604.3 656.8 582.2 650.89996 572 633.39996C 512.2 529.69995 467.3 452.09998 437.5 400.39996C 407 347.79996 428.8 294.99997 450.3 277.09998C 474.2 318.1 509.9 380 557.6 462.6z" stroke="none" fill="#FFFFFF" fill-rule="nonzero" />
</g>
</svg>

<?xml version="1.0" encoding="UTF-8"?>
<!-- Generator: Adobe Illustrator 23.0.1, SVG Export Plug-In . SVG Version: 6.00 Build 0)  -->
<svg version="1.1" id="Capa_1" xmlns="http://www.w3.org/2000/svg" xmlns:xlink="http://www.w3.org/1999/xlink" x="0px" y="0px" viewBox="0 0 800 800" enable-background="new 0 0 800 800" xml:space="preserve">
<linearGradient id="SVGID_1_" gradientUnits="userSpaceOnUse" x1="400.05" y1="798.7717" x2="400.05" y2="-1.2283" gradientTransform="matrix(1 0 0 -1 0 798.7717)">
	<stop offset="0" style="stop-color:#18BFFB"/>
	<stop offset="1" style="stop-color:#2072F3"/>
</linearGradient>
<path fill="url(#SVGID_1_)" d="M638.4,0H161.6C72.3,0,0,72.3,0,161.6v476.9C0,727.7,72.3,800,161.6,800h476.9  c89.2,0,161.6-72.3,161.6-161.6V161.6C800,72.3,727.7,0,638.4,0z"/>
<path fill="#FFFFFF" d="M396.6,183.8l16.2-28c10-17.5,32.3-23.4,49.8-13.4s23.4,32.3,13.4,49.8L319.9,462.4h112.9  c36.6,0,57.1,43,41.2,72.8H143c-20.2,0-36.4-16.2-36.4-36.4c0-20.2,16.2-36.4,36.4-36.4h92.8l118.8-205.9l-37.1-64.4  c-10-17.5-4.1-39.6,13.4-49.8c17.5-10,39.6-4.1,49.8,13.4L396.6,183.8L396.6,183.8z M256.2,572.7l-35,60.7  c-10,17.5-32.3,23.4-49.8,13.4S148,614.5,158,597l26-45C213.4,542.9,237.3,549.9,256.2,572.7L256.2,572.7z M557.6,462.6h94.7  c20.2,0,36.4,16.2,36.4,36.4c0,20.2-16.2,36.4-36.4,36.4h-52.6l35.5,61.6c10,17.5,4.1,39.6-13.4,49.8c-17.5,10-39.6,4.1-49.8-13.4  c-59.8-103.7-104.7-181.3-134.5-233c-30.5-52.6-8.7-105.4,12.8-123.3C474.2,318.1,509.9,380,557.6,462.6L557.6,462.6z"/>
</svg>
